X:2
T:Évit Gabriel (B part)
R:reel
Z:transcribed to ABC by Debby Knight
M:C|
L:1/8
K:Em
"Am"eAAe "D"dcBc | "G"dGGd "C"cBAG | "F#m"FGAc "B"BAGF |"Em"GFGA "E7"B2cd |
"Am"eAAe "D"dcBc |"G"dGGd "C"cBAG |"F#m"FGAc "B"BAGF| "Em"GA"B7"FG "Em"E4 :|
